app/component-library/components/Icons/Icon/assets/chart-2.svg

<svg width="24" height="24" viewBox="0 0 24 24" fill="none" xmlns="http://www.w3.org/2000/svg">
<path d="M21.2812 22.75H3.28125C2.87125 22.75 2.53125 22.41 2.53125 22C2.53125 21.59 2.87125 21.25 3.28125 21.25H21.2812C21.6912 21.25 22.0312 21.59 22.0312 22C22.0312 22.41 21.6912 22.75 21.2812 22.75Z" fill="currentColor"/>
<path d="M5.88125 8.37988H4.28125C3.73125 8.37988 3.28125 8.82988 3.28125 9.37988V17.9999C3.28125 18.5499 3.73125 18.9999 4.28125 18.9999H5.88125C6.43125 18.9999 6.88125 18.5499 6.88125 17.9999V9.37988C6.88125 8.81988 6.43125 8.37988 5.88125 8.37988Z" fill="currentColor"/>
<path d="M13.0814 5.18994H11.4814C10.9314 5.18994 10.4814 5.63994 10.4814 6.18994V17.9999C10.4814 18.5499 10.9314 18.9999 11.4814 18.9999H13.0814C13.6314 18.9999 14.0814 18.5499 14.0814 17.9999V6.18994C14.0814 5.63994 13.6314 5.18994 13.0814 5.18994Z" fill="currentColor"/>
<path d="M20.2812 2H18.6812C18.1312 2 17.6812 2.45 17.6812 3V18C17.6812 18.55 18.1312 19 18.6812 19H20.2812C20.8312 19 21.2812 18.55 21.2812 18V3C21.2812 2.45 20.8312 2 20.2812 2Z" fill="currentColor"/>
</svg>

<svg xmlns="http://www.w3.org/2000/svg" width="24" height="24" viewBox="0 0 24 24" fill="none"><path d="M21.281 22.75h-18c-.41 0-.75-.34-.75-.75s.34-.75.75-.75h18c.41 0 .75.34.75.75s-.34.75-.75.75zM5.881 8.38h-1.6c-.55 0-1 .45-1 1V18c0 .55.45 1 1 1h1.6c.55 0 1-.45 1-1V9.38c0-.56-.45-1-1-1zM13.081 5.19h-1.6c-.55 0-1 .45-1 1V18c0 .55.45 1 1 1h1.6c.55 0 1-.45 1-1V6.19c0-.55-.45-1-1-1zM20.281 2h-1.6c-.55 0-1 .45-1 1v15c0 .55.45 1 1 1h1.6c.55 0 1-.45 1-1V3c0-.55-.45-1-1-1z" fill="currentColor"/></svg>
